X:1
T:Engelska
T:efter Alfred Petersson, Nttraby, Blekinge (SvL, Band 18, nr 300)
O:Nttraby, Blekinge
S:Svenska Ltar
N:Svenska Ltar, Band 18 nr 300
R:Engelska
C:Alfred Petersson
M:2/4
L:1/16
Q:1/4=80
Z:Konverterad till abc-format av  Olle Paulsson 05-01-03
K:G
uBc|d2d2 b4|d2d2 g4|B2B2 (de)dB|c2A2 B2GB|
d2d2 b4|d2d2 g4|B2B2 dedB|c2A2 G2:|
K:D
|:f2|fdAF DFAd|f2ef (gf)ed|(ed)cB A2a2|(ag)eg f2d2|
fdAF DFAd|f2ef (gf)ed|(ed)cB A2a2|(ag)ec d2:|
